X:1
T:Merry Girls of Epsom
M:6/8
L:1/8
R:Jig
B:Elias Howe – Musician’s Omnibus Nos. 6 & 7 (Boston, 1880-1882, p. 606)
B:  http://ks4.imslp.net/files/imglnks/usimg/c/c7/IMSLP601433-PMLP562790-ONeill_Rare_Medium_M40_M8_v6.7_text.pdf
Z:AK/Fiddler’s Companion
K:Bb
B|FDE F2B|FDE F2B|cec BdB|cAF F2B|
FDE F2B|FDE Fce|dcB FBA|B2B B2:|
|:f|fdB fg_a|{a}g3g2g|gec gab|b3a2g|
fbf dfd|ege dfe|dcB FBA|B2B B2:|]

